X: 21
T:High Way to Scarborough,The. JB.21
M:6/8
L:1/8
Q:70
S:James Biggins MS, Leeds,1779.
R:Misc.
O:England
A:Yorkshire
W:Nick barber & Chris Partington.
K:G
g2fd2c|BGB dcB|cBc Aag|fge fed|!
gfg efg|abg fed|efg dgf|gdBG3:|!
|:"tr"B>AB c2A|"tr"B>AB gdc|"tr"B>ABc2A|bge afd|!
"tr"B>AB c2A|"tr"B>AB gdB|efg dgf|gdBG3:|]
